src/icons/icons_set_02/021-info.svg

<svg height="50" viewBox="0 0 50 50" width="50" xmlns="http://www.w3.org/2000/svg"><path d="m26.8712267 31.8228417-.0058409-.0029418c.3469034-.1192305.729103.0250665.9127531.3446042.18365.3195377.1175704.725266-.1578087.9689437-1.3711806 1.1119785-3.0746125 1.7255814-4.8348568 1.7415911-.4903477-.0008742-.9794309-.0501409-1.4602406-.1470939-1.3565636-.2780073-2.4035561-1.0561337-2.9496861-2.1902272-.6687902-1.384153-.5359083-3.1551628.3767421-4.989423l1.5347129-3.0919124c.819195-1.6430382.3373156-1.9857669.078853-2.1681632-.0511084-.0353025-.2131952-.120617-.6176818-.120617-.5423864.0241075-1.0789212.1230939-1.5945828.2941877-.3467513.1202878-.7295502-.023136-.9139847-.3424438-.1844344-.3193078-.1190477-.7254137.1561198-.9696332 1.371226-1.1091403 3.0734144-1.7205931 4.8319363-1.7357073.4937602-.001221.9863914.0475653 1.4704623.1456229 1.3536431.2780074 2.4020959 1.0576047 2.9496861 2.1902272.6687902 1.3870949.5344481 3.1581047-.3767421 4.989423l-1.5361731 3.0889706c-.8118938 1.647451-.3402361 1.9857668-.0817735 2.1666922.0511084.0367735.2161156.1220879.6220625.1220879.5428143-.0245433 1.079773-.1235172 1.596043-.2941877zm2.5510404-17.8277731c0 2.1357387-1.7187666 3.867097-3.8389726 3.867097-2.1202061 0-3.8389727-1.7313583-3.8389727-3.867097s1.7187666-3.867097 3.8389727-3.867097c2.120206 0 3.8389726 1.7313583 3.8389726 3.867097zm12.4342976 9.0049314c0-5.0010719-1.9866681-9.7973129-5.52296-13.33360475-3.5362918-3.53629184-8.3325328-5.52295992-13.3336047-5.52295992-10.4141931 0-18.85656467 8.44237157-18.85656467 18.85656467 0 10.414193 8.44237157 18.8565647 18.85656467 18.8565647 10.414193 0 18.8565647-8.4423717 18.8565647-18.8565647zm4 0c0 12.623332-10.2332327 22.8565647-22.8565647 22.8565647-12.6233321 0-22.85656467-10.2332327-22.85656467-22.8565647 0-12.6233321 10.23323257-22.85656467 22.85656467-22.85656467 6.0619379 0 11.8755946 2.40809545 16.1620319 6.6945328 4.2864373 4.28643737 6.6945328 10.10009407 6.6945328 16.16203187z" transform="translate(2 2)"/></svg>

<?xml version="1.0" encoding="UTF-8"?>
<svg width="50px" height="50px" viewBox="0 0 50 50" version="1.1" xmlns="http://www.w3.org/2000/svg" xmlns:xlink="http://www.w3.org/1999/xlink">
    <!-- Generator: Sketch 52.4 (67378) - http://www.bohemiancoding.com/sketch -->
    <title>021-info</title>
    <desc>Created with Sketch.</desc>
    <g id="021-info" stroke="none" stroke-width="1" fill="none" fill-rule="evenodd">
        <g id="Group" transform="translate(2.000000, 2.000000)" fill="#000000" fill-rule="nonzero">
            <g id="044-info">
                <g id="ICONSET-01">
                    <g id="044-info">
                        <path d="M26.8712267,31.8228417 L26.8653858,31.8198999 C27.2122892,31.7006694 27.5944888,31.8449664 27.7781389,32.1645041 C27.9617889,32.4840418 27.8957093,32.8897701 27.6203302,33.1334478 C26.2491496,34.2454263 24.5457177,34.8590292 22.7854734,34.8750389 C22.2951257,34.8741647 21.8060425,34.824898 21.3252328,34.727945 C19.9686692,34.4499377 18.9216767,33.6718113 18.3755467,32.5377178 C17.7067565,31.1535648 17.8396384,29.382555 18.7522888,27.5482948 L20.2870017,24.4563824 C21.1061967,22.8133442 20.6243173,22.4706155 20.3658547,22.2882192 C20.3147463,22.2529167 20.1526595,22.1676022 19.7481729,22.1676022 C19.2057865,22.1917097 18.6692517,22.2906961 18.1535901,22.4617899 C17.8068388,22.5820777 17.4240399,22.4386539 17.2396054,22.1193461 C17.055171,21.8000383 17.1205577,21.3939324 17.3957252,21.1497129 C18.7669512,20.0405726 20.4691396,19.4291198 22.2276615,19.4140056 C22.7214217,19.4127846 23.2140529,19.4615709 23.6981238,19.5596285 C25.0517669,19.8376359 26.1002197,20.6172332 26.6478099,21.7498557 C27.3166001,23.1369506 27.182258,24.9079604 26.2710678,26.7392787 L24.7348947,29.8282493 C23.9230009,31.4757003 24.3946586,31.8140161 24.6531212,31.9949415 C24.7042296,32.031715 24.8692368,32.1170294 25.2751837,32.1170294 C25.817998,32.0924861 26.3549567,31.9935122 26.8712267,31.8228417 Z M29.4222671,13.9950686 C29.4222671,16.1308073 27.7035005,17.8621656 25.5832945,17.8621656 C23.4630884,17.8621656 21.7443218,16.1308073 21.7443218,13.9950686 C21.7443218,11.8593299 23.4630884,10.1279716 25.5832945,10.1279716 C27.7035005,10.1279716 29.4222671,11.8593299 29.4222671,13.9950686 Z M41.8565647,23 C41.8565647,17.9989281 39.8698966,13.2026871 36.3336047,9.66639525 C32.7973129,6.13010341 28.0010719,4.14343533 23,4.14343533 C12.5858069,4.14343533 4.14343533,12.5858069 4.14343533,23 C4.14343533,33.414193 12.5858069,41.8565647 23,41.8565647 C33.414193,41.8565647 41.8565647,33.414193 41.8565647,23 Z M45.8565647,23 C45.8565647,35.623332 35.623332,45.8565647 23,45.8565647 C10.3766679,45.8565647 0.143435333,35.623332 0.143435333,23 C0.143435333,10.3766679 10.3766679,0.143435333 23,0.143435333 C29.0619379,0.143435333 34.8755946,2.55153078 39.1620319,6.83796813 C43.4484692,11.1244055 45.8565647,16.9380622 45.8565647,23 Z" id="Combined-Shape"></path>
                    </g>
                </g>
            </g>
        </g>
    </g>
</svg>
